build/system/PrintSolid.svg

<svg xmlns="http://www.w3.org/2000/svg" fill="none" viewBox="0 0 24 24" focusable="false"><path d="M0 0H24V24H0z"/><path fill="#74767B" fill-rule="evenodd" d="M9.29998 3L14.7 3C15.418 3 16 3.58203 16 4.3L16 5.99575C16 6.38235 15.6866 6.69574 15.3 6.69574L8.69997 6.69574C8.31337 6.69574 7.99997 6.38234 7.99997 5.99574L7.99998 4.3C7.99998 3.58203 8.58201 3 9.29998 3ZM21 15C21 16.6569 19.6569 18 18 18L17.5 18L17.5 13.8C17.5 13.082 16.918 12.5 16.2 12.5L7.8 12.5C7.08203 12.5 6.5 13.082 6.5 13.8L6.5 18L6 18C4.34315 18 3 16.6569 3 15L3 11C3 9.34315 4.34315 8 6 8L18 8C19.6569 8 21 9.34315 21 11L21 15ZM18.4858 11.6691C19.0381 11.6691 19.4858 11.2214 19.4858 10.6691C19.4858 10.1168 19.0381 9.66907 18.4858 9.66907C17.9335 9.66907 17.4858 10.1168 17.4858 10.6691C17.4858 11.2214 17.9335 11.6691 18.4858 11.6691ZM16 19.7C16 20.418 15.418 21 14.7 21L9.3 21C8.58203 21 8 20.418 8 19.7L8 14.7C8 14.3134 8.3134 14 8.7 14L15.3 14C15.6866 14 16 14.3134 16 14.7L16 19.7Z"/></svg>

<svg xmlns="http://www.w3.org/2000/svg" fill="none" viewBox="0 0 24 24" focusable="false"><path fill="#74767B" fill-rule="evenodd" d="M14.7 3H9.29C8.58 3 8 3.58 8 4.3v1.69c0 .39.31.7.7.7h6.59c.39 0 .71-.31.71-.7V4.3c0-.72-.59-1.3-1.3-1.3M21 15c0 1.65-1.35 3-3 3h-.5v-4.2c0-.72-.59-1.3-1.3-1.3H7.79c-.71 0-1.29.58-1.29 1.3V18H6c-1.66 0-3-1.35-3-3v-4c0-1.66 1.34-3 3-3h12c1.65 0 3 1.34 3 3zm-2.52-3.34c.55 0 1-.44 1-1 0-.55-.45-1-1-1s-1 .45-1 1c0 .56.45 1 1 1M16 19.7c0 .71-.59 1.3-1.3 1.3H9.29C8.58 21 8 20.41 8 19.7v-5c0-.39.31-.7.7-.7h6.59c.39 0 .71.31.71.7z"/></svg>
